X:29
T:Holywell Hornpipe. Le4.029
B:L.Leadley MS#4 c1850
Z:Village Music Project, 2016 Steve Mansfield
M:C
L:1/8
Q:2/4=75
N:* GG>GG in Mss (amended to match A part)
K:G
Bc | d2dg edcB | dcdg edcB | DGBG DGBG | DGBd cBAG |
d2dg edcB | dcdg edcB | gfgd ecAF | G2G>G G2 :|
|: Bc | d2de dBGB | cdef e2e2 | c2cd cBAG | Bdef g2g2 |
dBdg eceg | fdfa g2 de/f/ | gfgd ecAF | "*"G2 G>G G2 :|

